/* XPM */
const static char * vfr_xpm[] = {
"48 48 41 1",
" 	c None",
".	c #606080",
"+	c #A0A0A4",
"@	c #FFFBF0",
"#	c #E0A0C0",
"$	c #808080",
"%	c #FF0000",
"&	c #E02000",
"*	c #C02040",
"=	c #E06080",
"-	c #E08080",
";	c #E0A080",
">	c #606040",
",	c #C0C0C0",
"'	c #C0DCC0",
")	c #FFFFFF",
"!	c #C02000",
"~	c #E0C040",
"{	c #E0E080",
"]	c #C0A000",
"^	c #C0C000",
"/	c #E04040",
"(	c #C04040",
"_	c #C0A040",
":	c #C0C040",
"<	c #C0A0C0",
"[	c #A0A080",
"}	c #A0A040",
"|	c #C06080",
"1	c #C08080",
"2	c #A0A0C0",
"3	c #8080C0",
"4	c #A6CAF0",
"5	c #E0C080",
"6	c #C0C080",
"7	c #4040C0",
"8	c #0000FF",
"9	c #2020C0",
"0	c #0000C0",
"a	c #6060C0",
"b	c #A0A000",
"                                                ",
" .++++++++++++++++++++++++                      ",
" +@#####################@$                      ",
" +#%%%%%%%%%%%%%%%%%%%&*@$                      ",
" +#%=###############-%&*@$                      ",
" +#%#@##############;%&*@>,,,,,,,,,,,,,,'       ",
" +#%##%%%%%%%%%%%%%%%%&*@)@@@@@@@@@@@@@@.       ",
" +#%##%%%%%%%%%%%%%%%%&!~{{{{{{{{{{{{{{@.       ",
" +#%##%%%%%%%%%%%%%%%%&!]^^^^^^^^^^^^^^'.       ",
" +#%##%%%%%%%%%%%%%%%%&!]^^^^^^^^^^^^^^'.       ",
" +#%##%%%%%%%%%%%%%%%%&!]^^^^^^^^^^^^^^'.       ",
" +#%##%%%%%%%&/////////(_:::::::::^^^^^'.       ",
" +#%##%%%%%%%=<<<<<<<<<,,,,,,,,,,[}^^^^'.       ",
" +#%##%%%%%%%=,'@@@@@@@@@@@@@@@',$}^^^^'.       ",
" +#%##%%%%%%%=,@@@@@@@@@@@@@@@@',$}^^^^'.       ",
" +#%##%%%%%%%=,@',,,,,,,,,,,,,,,,$}^^^^'.       ",
" +#%##%%%%%%%=,@',,,,,,,,,,,,,,,,$}^^^^'.       ",
" +#%##%%%%%%%=,@',,,,,,,,,,,,,,,,$}^^^^'.       ",
" +#%##%%%%%%%=,@',,,,,,,,,,,,,,,,$}^^^^'.       ",
" +#%##%%%%%%%=,@',,,,,,,,,,,,,,,,$}^^^^'.       ",
" +#%-;%%%%%%%=,@',,,,,,,,,,,,,,,,$}^^^^'.       ",
" +#%%%%%%%%%%=,@',,,,,,,,,,,,,,,,$}^^^^'.       ",
" +#&&&&&&&&&&|,@',,,,,,,,,,,,,,,,$}^^^^',$$$$$+ ",
" +#*****!!!!!1,@',,,,,,,2222222223$}}}},44444)> ",
" +@@@@@@5]]]]6,@',,,,,,27888888888999999888994> ",
" +$$$$$,'^^^^6,@',,,,,,28733333333333333338804> ",
"       +'^^^^6,@',,,,,,283)@@@@@@@@@@@@@@47804> ",
"       +'^^^^6,@',,,,,,283@a777777777777788804> ",
"       +'^^^^6,@',,,,,,283@7888888888888888804> ",
"       +'^^^^6,@',,,,,,283@7888888888888888804> ",
"       +'^^^^6,,,,,,,,,283@7888888888888888804> ",
"       +'^^^^}+++++++++383@7888888888888888804> ",
"       +'^^^^}$$$$$$$$$.83@7888888888888888804> ",
"       +'^^^^^bbbbbbbbb}93@7888888888888888804> ",
"       +'^^^^^^^^^^^^^^}93@7888888888888888804> ",
"       +'^^^^^^^^^^^^^^}93@7888888888888888804> ",
"       +'^^^^^^^^^^^^^^}93@7888888888888888804> ",
"       +@{{{{{{{{{{{{{{693@7888888888888888804> ",
"       +@@@@@@@@@@@@@@@483@7888888888888888804> ",
"       ',,,,,,,,,,,,,,+483@7888888888888888804> ",
"                      $483@7888888888888888804> ",
"                      $48348888888888888888804> ",
"                      $48878888888888888888804> ",
"                      $49888888888888888888004> ",
"                      $49000000000000000000004> ",
"                      $)444444444444444444444@> ",
"                      +>>>>>>>>>>>>>>>>>>>>>>>+ ",
"                                                "};
